assets/img/braze_icons/arrow-narrow-down-left.svg

<svg fill="none" height="24" viewBox="0 0 24 24" width="24" xmlns="http://www.w3.org/2000/svg"><path d="m18.7071 6.70711c.3905-.39053.3905-1.02369 0-1.41422-.3905-.39052-1.0237-.39052-1.4142 0l-10.2929 10.29291v-5.5858c0-.55228-.44772-1-1-1s-1 .44772-1 1v8c0 .5523.44772 1 1 1h8c.5523 0 1-.4477 1-1s-.4477-1-1-1h-5.58579z" fill="#801ed7"/></svg>

<svg width="24" height="24" viewBox="0 0 24 24" fill="none" xmlns="http://www.w3.org/2000/svg">
<path d="M18.7071 6.70711C19.0976 6.31658 19.0976 5.68342 18.7071 5.29289C18.3166 4.90237 17.6834 4.90237 17.2929 5.29289L7 15.5858V10C7 9.44772 6.55228 9 6 9C5.44772 9 5 9.44772 5 10V18C5 18.5523 5.44772 19 6 19H14C14.5523 19 15 18.5523 15 18C15 17.4477 14.5523 17 14 17H8.41421L18.7071 6.70711Z" fill="#801ED7"/>
</svg>
